X:1
T:Oh, Let Us Be Glad
T:Oh, Let Us Be Glad
T:Thomas Frank Allen
T:Vinnie Vernon, 1885
T:Public Domain Courtesy of the Cyber Hymnal™
T:Public Domain Courtesy of the Cyber Hymnal™
C:Thomas Frank Allen
Z:Public Domain
Z:Courtesy of the Cyber Hymnal™
%%score ( 1 2 ) ( 3 4 )
L:1/8
Q:1/4=106
M:3/4
K:Bb
V:1 treble 
V:2 treble 
V:3 bass 
V:4 bass 
V:1
 (3(F{a}GA) x | B2 D2 F2 | [DB]4 [FB][Fc] | [Fd]2 [Fc]2 [FB]2 | [EG]4 [EG]2 | [EG]2 [Gc]2 [Gd]2 | %6
w: 1.~Oh, * *|let us be|glad in our|Sav- ior and|king, No|tongues ev- er|
w: 2.~His * *|won- der- ful|name makes our|vic- to- ry|sure, We|share in His|
w: 3.~We * *|bless His dear|name, th- ro’|smiles and thro’|tears, His|love all the|
 [Ge]4 [Gc][GB] | [FA]2 [GB]2 [=EG]2 | F4 F2 | F2 [FA]2 [Fc]2 | [Fe]4 [Fc][FA] | %11
w: had great- er|rea- son to|sing; Our|hearts we will|raise with our|
w: fame which shall|ev- er en-|dure; On|earth we’ve His|Word and the|
w: same hath en-|com- passed our|years; Oh,|who could be|sad when thus|
 [FB]2 [FB]2 [Fc]2 | [Fd]4 [Fd]2 | [Fd]2 [Fc]2 [Fd]2 | [Ee]2 [EG]2 [Ec]2 | [DB]2 [Fd]2 [Ec]2 | %16
w: voic- es in|song, And|give Him the|praise, to whom|prais- es be-|
w: gift of His|love; The|joy of the|Lord yet a-|waits us a-|
w: held in His|care? Come,|let us be|glad, and God’s|good- ness de-|
 [DB]4 ||"^Refrain" [DF]2 | ([EA]6- | A2 G2) [EF]2 | ([DB]6- | [DB]2 [EA]2) [FB]2 | %22
w: long.||||||
w: bove.|Be|glad,||be|* * glad,|
w: clare.||||||
 [Fc]2 [Fc]2 [Fc]2 | [Fc]2 [FB]2 [Fc]2 | [Fd]6- | [Fd]4 [DF]2 | [DF]2 ([C=E][DF]) ([_EG][DF]) | %27
w: |||||
w: Oh, let us|be glad in|our|* king;|Lift up * hap- *|
w: |||||
 [Fd]2 [Fc]2 [FB]2 | [Ec]6 | [EG]4 [EG]2 | [DF]2 [DB]2 [DB]2 | [Ec]2 [Fd]2 [Ec]2 | B6- | [DB]4 |] %34
w: |||||||
w: py voic- es|and|praise Him,|Till space with|His prais- es|shall||
w: |||||||
V:2
 FG A | B2 D2 F2 | x6 | x6 | x6 | x6 | x6 | x6 | F4 F2 | F2 x4 | x6 | x6 | x6 | x6 | x6 | x6 | %16
 x4 || x2 | x6 | E4 x2 | x6 | x6 | x6 | x6 | x6 | x6 | x6 | x6 | x6 | x6 | x6 | x6 | D2 F2 E2 | %33
 x4 |] %34
V:3
 F,G, A, | B,2 D,2 F,2 | [B,,F,]4 [D,B,][F,A,] | B,2 [F,A,]2 [D,B,]2 | [E,B,]4 [E,B,]2 | %5
w: ~ ~ ~|~ ~ ~|~ ~ ~|~ ~ ~|~ ~|
 [C,C]2 [E,C]2 [D,=B,]2 | [C,C]4 [E,C][=E,C] | [F,C]2 [C,C]2 [C,B,]2 | [F,A,]4 [F,A,]2 | %9
w: ~ ~ ~|~ ~ ~|~ ~ ~|~ ~|
 [F,A,]2 [F,C]2 [F,A,]2 | [F,C]4 [F,A,][E,C] | [D,B,]2 [D,B,]2 [C,A,]2 | [B,,B,]4 B,2 | %13
w: ~ ~ ~|~ ~ ~|~ ~ ~|~ ~|
 B,2 [A,C]2 [_A,B,]2 | [G,B,]2 [E,B,]2 [E,G,]2 | F,2 [F,B,]2 [F,,A,]2 | [B,,B,]4 || [B,,B,]2 | %18
w: ~ ~ ~|~ ~ ~|~ ~ Be|glad,|oh,|
 [F,C]2 [F,C]2 [F,C]2 | C2 B,2 [F,A,]2 | [B,,B,]2 [B,,F,]2 [B,,F,]2 | F,4 [D,B,]2 | %22
w: be glad, Be|glad, oh, be|glad, ~ ~|~ ~|
 [F,A,]2 [F,A,]2 [F,A,]2 | [E,A,]2 [D,B,]2 [C,A,]2 | [B,,B,]2 [D,B,]2 [F,B,]2 | B,4 [B,,B,]2 | %26
w: ~ ~ ~|~ ~ ~|in our king,|~ ~|
 [B,,B,]2 [B,,B,]2 [B,,B,]2 | [B,,B,]2 [C,A,]2 [D,B,]2 | [E,G,]6 | [E,B,]4 [E,B,]2 | %30
w: ~ ~ ~|~ ~ ~|~|~ ~|
 [F,B,]2 [F,B,]2 [F,B,]2 | [F,,A,]2 [F,,A,]2 [F,,A,]2 | B,2 A,2 G,2 | [B,,F,]4 |] %34
w: ~ ~ ~|~ His prais-|es shall ring.||
V:4
 (3(F,{F,,}G,A,) x | B,2 D,2 F,2 | x6 | B,2 x4 | x6 | x6 | x6 | x6 | x6 | x6 | x6 | x6 | x4 B,2 | %13
 B,2 x4 | x6 | F,2 x4 | x4 || x2 | x6 | F,4 x2 | x6 | B,,2 C,2 x2 | x6 | x6 | x6 | B,4 x2 | x6 | %27
 x6 | x6 | x6 | x6 | x6 | B,,6- | x4 |] %34

